pictures/spurit-logo.svg

<svg width="163" height="34" viewBox="0 0 163 34" fill="none" xmlns="http://www.w3.org/2000/svg">
<path d="M8.82044 25.7653C8.82044 25.7653 12.9024 31.8127 20.4833 31.8127C24.3987 31.8127 28.8139 30.2001 28.8139 27.2167C28.8139 23.9914 25.9815 22.3787 20.0668 21.2499C11.8195 19.6372 5.98804 16.4926 5.98804 9.47754C5.98804 5.6604 8.77546 1.8868 13.4373 0C5.61149 2.65765 0 9.87103 0 18.3536C0 22.7513 1.50784 26.8071 4.05201 30.0646L8.82044 25.7653Z" fill="#5655D1"/>
<path d="M34.244 4.5509L29.8138 8.99375C29.8138 8.99375 25.9817 4.8815 20.1503 4.8815C15.2352 4.8815 12.8193 7.21984 12.8193 9.63881C12.8193 12.461 15.8184 13.993 22.1496 15.2831C29.4806 16.8151 35.7285 19.476 35.7285 27.0554C35.7285 29.1535 35.0587 30.9548 33.9258 32.4546C37.7795 28.9116 40.182 23.9043 40.182 18.3536C40.182 12.9576 37.9111 8.07454 34.244 4.5509Z" fill="#34E0A1"/>
<path d="M61.7886 24.2548C64.6502 24.2548 66.229 22.9767 66.229 21.6667C66.229 19.8135 63.6634 19.3342 60.8676 18.8549C57.8415 18.3757 51.3289 17.2893 51.3289 11.6977C51.3289 6.13809 56.6245 4.63635 60.8676 4.63635C65.0778 4.63635 67.742 5.88248 70.3734 7.76764L67.4789 11.6019C65.4067 10.164 63.0056 9.20547 60.6702 9.20547C59.1572 9.20547 56.5259 9.6528 56.5259 11.506C56.5259 13.1675 59.1243 13.5509 61.2952 13.9983C65.2093 14.7971 71.4259 15.2763 71.4259 21.5389C71.4259 26.3956 67.5447 28.792 61.8543 28.792C56.6574 28.792 53.2367 27.0027 51 25.1495L53.7629 21.2833C55.5062 22.6892 59.0256 24.2548 61.7886 24.2548Z" fill="#151515"/>
<path d="M79.6854 12.5283C80.4419 11.5378 82.6128 10.3876 85.1784 10.3876C90.9016 10.3876 94.2565 14.5094 94.2565 19.5578C94.2565 24.6062 90.9016 28.728 85.1784 28.728C82.547 28.728 80.6064 27.7055 79.6854 26.5233V34H74.8174V10.771H79.6854V12.5283ZM84.4547 24.5423C87.5795 24.5423 89.4214 22.4334 89.4214 19.5578C89.4214 16.778 87.4808 14.6052 84.4547 14.6052C81.3958 14.6052 79.488 16.4904 79.488 19.5578C79.488 22.4654 81.3958 24.5423 84.4547 24.5423Z" fill="#151515"/>
<path d="M98.0098 21.2194V10.8351H102.976V21.2194C102.976 23.9034 104.621 24.7342 106.496 24.7342C107.877 24.7342 110.081 23.9354 109.95 20.1331V10.8351H114.883V28.3447H109.95V26.843C108.765 28.0252 107.022 28.7281 105.114 28.7281C99.9175 28.7281 98.0098 25.7566 98.0098 21.2194Z" fill="#151515"/>
<path d="M124.834 20.5803V28.3446H119.933V10.771H124.834V13.1035C126.675 10.7391 129.734 10.4196 131.017 10.4515V15.1165C129.833 15.0206 124.834 15.2443 124.834 20.5803Z" fill="#151515"/>
<path d="M134.582 28.3446V4.98779H139.779V28.3446H134.582Z" fill="#151515"/>
<path d="M155.299 9.3652V28.3446H150.069V9.3652H143.063V4.98779H162.272V9.3652H155.299Z" fill="#151515"/>
</svg>

<svg fill="none" xmlns="http://www.w3.org/2000/svg" viewBox="0 0 163 34">
  <path d="M8.82 25.77s4.08 6.04 11.66 6.04c3.92 0 8.33-1.61 8.33-4.6 0-3.22-2.83-4.83-8.74-5.96-8.25-1.61-14.08-4.76-14.08-11.77 0-3.82 2.79-7.6 7.45-9.48C5.6 2.66 0 9.87 0 18.35c0 4.4 1.5 8.46 4.05 11.71l4.77-4.3Z" fill="#5655D1"/>
  <path d="M34.24 4.55 29.81 9s-3.83-4.1-9.66-4.1c-4.91 0-7.33 2.33-7.33 4.75 0 2.82 3 4.35 9.33 5.64 7.33 1.54 13.58 4.2 13.58 11.78 0 2.1-.67 3.9-1.8 5.4a19.1 19.1 0 0 0 6.25-14.1c0-5.4-2.27-10.29-5.94-13.8Z" fill="#34E0A1"/>
  <path d="M61.79 24.25c2.86 0 4.44-1.27 4.44-2.58 0-1.86-2.57-2.34-5.36-2.82-3.03-.47-9.54-1.56-9.54-7.15 0-5.56 5.3-7.06 9.54-7.06 4.2 0 6.87 1.24 9.5 3.13l-2.9 3.83c-2.06-1.44-4.46-2.4-6.8-2.4-1.51 0-4.14.45-4.14 2.3 0 1.67 2.6 2.05 4.77 2.5 3.9.8 10.13 1.28 10.13 7.54 0 4.86-3.89 7.25-9.58 7.25-5.2 0-8.61-1.79-10.85-3.64l2.76-3.87c1.75 1.4 5.27 2.97 8.03 2.97Zm17.9-11.72c.75-1 2.92-2.14 5.49-2.14 5.72 0 9.08 4.12 9.08 9.17s-3.36 9.17-9.08 9.17c-2.63 0-4.57-1.02-5.5-2.2V34h-4.86V10.77h4.87v1.76Zm4.76 12.01c3.13 0 4.97-2.1 4.97-4.98a4.76 4.76 0 0 0-4.97-4.95c-3.05 0-4.96 1.88-4.96 4.95 0 2.9 1.9 4.98 4.96 4.98Zm13.56-3.32V10.84h4.97v10.38c0 2.68 1.64 3.51 3.52 3.51 1.38 0 3.58-.8 3.45-4.6v-9.3h4.93v17.51h-4.93v-1.5a6.83 6.83 0 0 1-4.84 1.89c-5.2 0-7.1-2.97-7.1-7.51Zm26.82-.64v7.76h-4.9V10.77h4.9v2.33c1.84-2.36 4.9-2.68 6.19-2.65v4.67c-1.19-.1-6.19.12-6.19 5.46Zm9.75 7.76V5h5.2v23.35h-5.2ZM155.3 9.37v18.97h-5.23V9.37h-7V4.99h19.2v4.38h-6.97Z" fill="#151515"/>
</svg>
